X:297
T: NUN MUSST DU MICH AUCH RECHT VERSTEHN
N: B0774A
O: Europa, Mitteleuropa, Deutschland
R: Abschieds - Lied, religioes
M: 4/4
L: 1/8
K: D
A2 | G3FF2d2 | c3BB2
B2 | E2F2G2B2 | A3GF2
F2 | d3cB2zA | A3^G=G2
B2 | e3dc2zB | B3AA2
A2 | E3GF2A2 | E3GF2
A2 | E6G2 | F8

@@@ Tune index: 2515
